icons/left arrow.svg

<?xml version="1.0" encoding="utf-8"?>
<!-- Generator: Adobe Illustrator 26.4.1, SVG Export Plug-In . SVG Version: 6.00 Build 0)  -->
<svg version="1.1"
	 id="svg3551" xmlns:svg="http://www.w3.org/2000/svg" xmlns:ns1="http://sozi.baierouge.fr" xmlns:rdf="http://www.w3.org/1999/02/22-rdf-syntax-ns#" xmlns:cc="http://creativecommons.org/ns#" xmlns:sodipodi="http://sodipodi.sourceforge.net/DTD/sodipodi-0.dtd" xmlns:dc="http://purl.org/dc/elements/1.1/" xmlns:inkscape="http://www.inkscape.org/namespaces/inkscape"
	 xmlns="http://www.w3.org/2000/svg" xmlns:xlink="http://www.w3.org/1999/xlink" x="0px" y="0px" viewBox="0 0 612 612"
	 style="enable-background:new 0 0 612 612;" xml:space="preserve">
<style type="text/css">
	.st0{fill:#FFFFFF;}
</style>
<sodipodi:namedview  bordercolor="#666666" borderopacity="1.0" id="base" inkscape:current-layer="svg3551" inkscape:cx="305.25953" inkscape:cy="417.84947" inkscape:pageopacity="0.0" inkscape:pageshadow="2" inkscape:window-height="667" inkscape:window-width="640" inkscape:window-x="5" inkscape:window-y="70" inkscape:zoom="0.43415836" pagecolor="#ffffff" showgrid="false">
	</sodipodi:namedview>
<g id="g3561" transform="translate(-.0819 -.58539)">
	<path id="path3563" d="M82.4,17.9c-41.3,0-64.6,21.4-64.6,65v450.1c0,40.8,20.9,62.2,62.2,62.2h452c41.3,0,62.2-20.3,62.2-62.2V83
		c0-42.6-20.9-65-63.5-65C530.8,17.9,82.3,17.8,82.4,17.9L82.4,17.9z"/>
	<path id="path3565" class="st0" d="M-345.6,482.1l-180.2-180.2l180.2-180.2h118.9l-137.1,137.1h269.3V346h-268.4l136.3,136.3
		L-345.6,482.1z"/>
</g>
</svg>

<?xml version="1.0" encoding="UTF-8" standalone="no"?>
<!DOCTYPE svg PUBLIC "-//W3C//DTD SVG 1.1//EN" "http://www.w3.org/Graphics/SVG/1.1/DTD/svg11.dtd">
<svg width="100%" height="100%" viewBox="0 0 612 612" version="1.1" xmlns="http://www.w3.org/2000/svg" xmlns:xlink="http://www.w3.org/1999/xlink" xml:space="preserve" xmlns:serif="http://www.serif.com/" style="fill-rule:evenodd;clip-rule:evenodd;stroke-linejoin:round;stroke-miterlimit:2;">
    <g transform="matrix(1,0,0,1,-0.0819,-0.58539)">
        <path d="M82.4,17.9C41.1,17.9 17.8,39.3 17.8,82.9L17.8,533C17.8,573.8 38.7,595.2 80,595.2L532,595.2C573.3,595.2 594.2,574.9 594.2,533L594.2,83C594.2,40.4 573.3,18 530.7,18C530.8,17.9 82.3,17.8 82.4,17.9Z" style="fill-rule:nonzero;"/>
        <g transform="matrix(1,0,0,1,614.417,0)">
            <path d="M-345.6,482.1L-525.8,301.9L-345.6,121.7L-226.7,121.7L-363.8,258.8L-94.5,258.8L-94.5,346L-362.9,346L-226.6,482.3L-345.6,482.1Z" style="fill:white;fill-rule:nonzero;"/>
        </g>
    </g>
</svg>
